svg/calendar_collapse_horizontal.svg

<svg xmlns="http://www.w3.org/2000/svg" viewBox="0 0 24 24"><path d="M19 19H5V8h14m-3-7v2H8V1H6v2H5c-1.1 0-2 .9-2 2v14c0 1.1.9 2 2 2h14c1.1 0 2-.9 2-2V5c0-1.1-.9-2-2-2h-1V1m-7 13-3-3v2H6v2h2v2zm7-1h-2v-2l-3 3 3 3v-2h2z"/></svg>

<svg xmlns="http://www.w3.org/2000/svg" id="mdi-calendar-collapse-horizontal" viewBox="0 0 24 24"><path d="M19 19H5V8H19M16 1V3H8V1H6V3H5C3.9 3 3 3.9 3 5V19C3 20.1 3.9 21 5 21H19C20.1 21 21 20.1 21 19V5C21 3.9 20.1 3 19 3H18V1M11 14L8 11V13H6V15H8V17L11 14M18 13H16V11L13 14L16 17V15H18V13Z" /></svg>
